**harmony	**harte	**kern	**silbe	**kern	**silbe	**rhyme	**timestamp	**phrase
*M4/4	*M4/4	*ICvox	*	*ICvox	*	*	*	*
*	*	*VRlead	*	*VRharmonize	*	*	*	*
*	*	*Hstimme	*	*Nstimme	*	*	*	*
*G-:	*G-:	*G-:	*	*G-:	*	*	*	*
*	*	*M4/4	*	*M4/4	*	*	*	*
*	*	*clefG2	*	*clefC3	*	*	*	*
1r;	1r	r;	.	r;	.	.	0	.
=1	=1	=1	=1	=1	=1	=1	=1	=1
*>Letter>A	*>Letter>A	*>Letter>A	*>Letter>A	*>Letter>A	*>Letter>A	*>Letter>A	*>Letter>A	*>Letter>A
*>Label>Intro	*>Label>Intro	*>Label>Intro	*>Label>Intro	*>Label>Intro	*>Label>Intro	*>Label>Intro	*>Label>Intro	*>Label>Intro
1G-M	G-:maj	1r	.	1r	.	.	.	newline
=2	=2	=2	=2	=2	=2	=2	=2	=2
1G-M	G-:maj	1r	.	1r	.	.	.	.
=3	=3	=3	=3	=3	=3	=3	=3	=3
1G-M	G-:maj	1r	.	1r	.	.	.	.
=4	=4	=4	=4	=4	=4	=4	=4	=4
1G-M	G-:maj	1r	.	1r	.	.	.	.
=5	=5	=5	=5	=5	=5	=5	=5	=5
*>Letter>B	*>Letter>B	*>Letter>B	*>Letter>B	*>Letter>B	*>Letter>B	*>Letter>B	*>Letter>B	*>Letter>B
*>Label>Chorus	*>Label>Chorus	*>Label>Chorus	*>Label>Chorus	*>Label>Chorus	*>Label>Chorus	*>Label>Chorus	*>Label>Chorus	*>Label>Chorus
.	.	8a-q	_	.	.	.	.	.
1G-M	G-:maj	4b-	Hea-	4d- 4g-	Hea-	.	.	newline
.	.	4a-	-ven's	4d- 4g-	-ven's	.	.	.
.	.	4b-	just	4d- 4g-	just	.	.	.
.	.	4a-	a	4c- 4e-	a	.	.	.
=6	=6	=6	=6	=6	=6	=6	=6	=6
.	.	8a-q	_	.	.	.	.	.
1G-M	G-:maj	4b-	sin	4d- 4g-	sin	.	.	.
.	.	8a-	a-	8c- 8e-	a-	.	.	.
.	.	[8g-	-way,	[8B- [8d-	-way,	.	.	.
.	.	8g-]	_	8B-] 8d-]	_	.	.	.
.	.	8b-	whoa	8B- 8e-	whoa	.	.	.
.	.	8a-	_	8c- 8e-	_	.	.	.
.	.	8g-	_	8c- 8e-	_	.	.	.
=7	=7	=7	=7	=7	=7	=7	=7	=7
1C-M	C-:maj	4a-	whoa,	4c- 4e-	whoa,	.	.	.
.	.	4g-	_	4c- 4e-	_	.	.	.
.	.	4a-	just	4c- 4e-	just	.	.	.
.	.	4g-	a	4c- 4e-	a	.	.	.
=8	=8	=8	=8	=8	=8	=8	=8	=8
.	.	8g-q	_	.	.	.	.	.
1C-M	C-:maj	4a-	sin	4c- 4f-	sin	.	.	.
.	.	8g-	a-	8c- 8e-	a-	.	.	.
.	.	[8a-	-way,	[8c- [8e-	-way	A	.	.
.	.	8a-]	_	4c-] 4e-]	_	.	.	.
.	.	8g-	_	.	.	.	.	.
.	.	4e-	_	4r	.	.	.	.
=9	=9	=9	=9	=9	=9	=9	=9	=9
1G-M	G-:maj	8r	.	8r	.	.	.	newline
.	.	8a-	I	8d- 8g-	I	.	.	.
.	.	4b-	can't	4d- 4g-	can't	.	.	.
.	.	4b-	wait	4d- 4g-	wait	A	.	.
.	.	4a-	a-	4c- 4e-	a-	.	.	.
=10	=10	=10	=10	=10	=10	=10	=10	=10
1G-M	G-:maj	4b-	-no-	4d- 4g-	-no-	.	.	.
.	.	8a-	-ther	8c- 8e-	-ther	.	.	.
.	.	[8g-	day,	[8B- [8d-	day,	A	.	.
.	.	8g-]	_	8B-] 8d-]	_	.	.	.
.	.	8a-	I	8c- 8e-	I	.	.	.
.	.	4b-	_	4d- 4g-	_	.	.	.
=11	=11	=11	=11	=11	=11	=11	=11	=11
1A-M	A-:maj	4a-	think	4c 4e-	think	.	.	.
.	.	4a-	I'm	4c 4e-	I'm	.	.	.
.	.	4a-	gi-	4c 4e-	gi-	.	.	.
.	.	8g-	-vin'	8c 8e-	-vin'	b	.	.
.	.	8a-q	_	8cq 8e-q	_	.	.	.
.	.	[8b-	in	[8d- [8f	in	B	.	.
=12	=12	=12	=12	=12	=12	=12	=12	=12
1D-M	D-:maj	8b-]	_	8d-] 8f]	_	.	.	.
.	.	8r	.	8r	.	.	.	.
.	.	4r	.	4r	.	.	.	.
.	.	2r	.	2r	.	.	.	.
=13	=13	=13	=13	=13	=13	=13	=13	=13
.	.	8a-q	_	.	.	.	.	.
1G-M	G-:maj	8b-	How	8d- 8g-	How	.	.	newline
.	.	4a-	I'd	4d- 4g-	I'd	.	.	.
.	.	4.b-	love	4.d- 4.g-	love	.	.	.
.	.	8a-	to	8c- 8e-	to	.	.	.
.	.	[8b-	hold	[8d- [8g-	hold	.	.	.
=14	=14	=14	=14	=14	=14	=14	=14	=14
1G-M	G-:maj	4b-]	_	4d-] 4g-]	_	.	.	.
.	.	8a-	you	8c- 8e-	you	.	.	.
.	.	[8g-	tight,	[8B- [8d-	tight,	C	.	.
.	.	8g-]	_	8B-] 8d-]	_	.	.	.
.	.	8b-	whoa	8B- 8e-	whoa	.	.	.
.	.	8a-	_	8c- 8e-	_	.	.	.
.	.	8g-	_	8c- 8e-	_	.	.	.
=15	=15	=15	=15	=15	=15	=15	=15	=15
1C-M	C-:maj	4a-	whoa,	4c- 4e-	whoa,	.	.	.
.	.	4g-	_	4c- 4e-	_	.	.	.
.	.	4a-	be	4c- 4e-	be	.	.	.
.	.	8g-	with	8c- 8e-	with	.	.	.
.	.	[8a-	you	[8c- [8f-	you	.	.	.
=16	=16	=16	=16	=16	=16	=16	=16	=16
1C-M	C-:maj	4a-]	_	4c-] 4f-]	_	.	.	.
.	.	8g-	to-	8c- 8e-	to-	.	.	.
.	.	[8a-	-night	[8c- [8e-	-night	C	.	.
.	.	8a-]	_	4c-] 4e-]	_	.	.	.
.	.	8g-	_	.	.	.	.	.
.	.	4e-	_	4r	.	.	.	.
=17	=17	=17	=17	=17	=17	=17	=17	=17
1G-M	G-:maj	8r	.	8r	.	.	.	newline
.	.	8a-	But	8d- 8g-	But	.	.	.
.	.	4b-	that	4d- 4g-	that	.	.	.
.	.	4b-	still	4d- 4g-	still	.	.	.
.	.	4a-	won't	4c- 4e-	won't	.	.	.
=18	=18	=18	=18	=18	=18	=18	=18	=18
1G-M	G-:maj	4b-	make	4d- 4g-	make	.	.	.
.	.	8a-	it	8c- 8e-	it	.	.	.
.	.	[8g-	right,	[8B- [8d-	right,	C	.	.
.	.	8g-]	_	8B-] 8d-]	_	.	.	.
.	.	8a-	cuz	8c- 8e-	cuz	.	.	.
.	.	4b-	_	4d- 4g-	_	.	.	.
=19	=19	=19	=19	=19	=19	=19	=19	=19
1D-M	D-:maj	4a-	I	4d- 4f	I	.	.	.
.	.	8g-	be-	8d- 8e-	be-	.	.	.
.	.	[8b-	-long	[8d- [8g-	-long	.	.	.
.	.	4b-]	_	4d-] 4g-]	_	.	.	.
.	.	8dd-	to	8d- 8f	to	.	.	.
.	.	8a-q	_	8fq	_	.	.	.
.	.	[8b-	him	[8d- [8g-	him	B	.	.
=20	=20	=20	=20	=20	=20	=20	=20	=20
*>Letter>A	*>Letter>A	*>Letter>A	*>Letter>A	*>Letter>A	*>Letter>A	*>Letter>A	*>Letter>A	*>Letter>A
*>Label>Trans	*>Label>Trans	*>Label>Trans	*>Label>Trans	*>Label>Trans	*>Label>Trans	*>Label>Trans	*>Label>Trans	*>Label>Trans
1G-M	G-:maj	8b-]	_	8d-] 8g-]	_	.	.	newline
.	.	8a-	_	8c- 8e-	_	.	.	.
.	.	2.g-	_	2.B- 2.d-	_	.	.	.
=21	=21	=21	=21	=21	=21	=21	=21	=21
1G-M	G-:maj	4r	.	1r	.	.	.	.
.	.	8r	.	.	.	.	.	.
.	.	8a-q	_	.	.	.	.	.
.	.	[8b-	Oh,	.	.	.	.	.
.	.	8b-]	_	.	.	.	.	.
.	.	8a-	_	.	.	.	.	.
.	.	8b-	_	.	.	.	.	.
.	.	8a-	_	.	.	.	.	.
=22	=22	=22	=22	=22	=22	=22	=22	=22
*>Letter>C	*>Letter>C	*>Letter>C	*>Letter>C	*>Letter>C	*>Letter>C	*>Letter>C	*>Letter>C	*>Letter>C
*>Label>Bridge	*>Label>Bridge	*>Label>Bridge	*>Label>Bridge	*>Label>Bridge	*>Label>Bridge	*>Label>Bridge	*>Label>Bridge	*>Label>Bridge
1C-M	C-:maj	4a-	way	1r	.	.	.	newline
.	.	4g-	down	.	.	.	.	.
.	.	8e-	deep	.	.	.	.	.
.	.	8a-	in	.	.	.	.	.
.	.	4b-	_	.	.	.	.	.
=23	=23	=23	=23	=23	=23	=23	=23	=23
1C-M	C-:maj	4a-	side	1r	.	C	.	.
.	.	4g-	_	.	.	.	.	.
.	.	4r	.	.	.	.	.	.
.	.	8g-	I	.	.	.	.	.
.	.	8a-	know	.	.	.	.	.
=24	=24	=24	=24	=24	=24	=24	=24	=24
1G-M	G-:maj	4g-	_	1r	.	.	.	.
.	.	8g-	that	.	.	.	.	.
.	.	[8a-	it's	.	.	.	.	.
.	.	8a-]	_	.	.	.	.	.
.	.	8a-	all	.	.	.	.	.
.	.	8b-	_	.	.	.	.	.
.	.	8a-	_	.	.	.	.	.
=25	=25	=25	=25	=25	=25	=25	=25	=25
1G-M	G-:maj	16a-	wrong	1r	.	D	.	.
.	.	[8.g-	_	.	.	.	.	.
.	.	16g-]	_	.	.	.	.	.
.	.	16e-	_	.	.	.	.	.
.	.	8r	.	.	.	.	.	.
.	.	8r	.	.	.	.	.	.
.	.	8a-	Your	.	.	.	.	.
.	.	8b-	_	.	.	.	.	.
.	.	8a-	_	.	.	.	.	.
=26	=26	=26	=26	=26	=26	=26	=26	=26
1C-M	C-:maj	16a-	eyes	1r	.	C	.	newline
.	.	8.g-	_	.	.	.	.	.
.	.	4g-	keep	.	.	.	.	.
.	.	8e-	temp-	.	.	.	.	.
.	.	8a-	-ting	.	.	.	.	.
.	.	8b-	_	.	.	.	.	.
.	.	8a-	_	.	.	.	.	.
=27	=27	=27	=27	=27	=27	=27	=27	=27
1C-M	C-:maj	8a-	me	1r	.	.	.	.
.	.	4.g-	_	.	.	.	.	.
.	.	8r	.	.	.	.	.	.
.	.	8a-	and	.	.	.	.	.
.	.	4b-	I	.	.	.	.	.
=28	=28	=28	=28	=28	=28	=28	=28	=28
1D-M	D-:maj	8a-	ne-	8d- 8f	ne-	.	.	.
.	.	4a-	-ver	4d- 4f	-ver	.	.	.
.	.	[8a-	was	[8d- [8f	was	.	.	.
.	.	8a-]	_	8d-] 8f]	_	.	.	.
.	.	4b-	that	4e- 4g-	that	.	.	.
.	.	8cc-q	_	8e-q 8g-q	_	.	.	.
.	.	[8dd-	strong,	[8f [8a-	strong,	D	.	.
=29	=29	=29	=29	=29	=29	=29	=29	=29
1D-M	D-:maj	4dd-]	_	4f] 4a-]	_	.	.	.
.	.	4b-	_	4e- [4g-	_	.	.	.
.	.	4a-	_	[2d- 2g-_	_	.	.	.
.	.	[4b-	_	.	.	.	.	.
=30	=30	=30	=30	=30	=30	=30	=30	=30
*>Letter>B	*>Letter>B	*>Letter>B	*>Letter>B	*>Letter>B	*>Letter>B	*>Letter>B	*>Letter>B	*>Letter>B
*>Label>Chorus	*>Label>Chorus	*>Label>Chorus	*>Label>Chorus	*>Label>Chorus	*>Label>Chorus	*>Label>Chorus	*>Label>Chorus	*>Label>Chorus
1G-M	G-:maj	2b-]	_	2d-] 2g-]	_	.	.	newline
.	.	8b-	De-	8d- 8g-	De-	.	.	.
.	.	4a-	-vil's	4c- 4e-	-vil's	b	.	.
.	.	8b-	got	8d- 8g-	got	.	.	.
=31	=31	=31	=31	=31	=31	=31	=31	=31
1G-M	G-:maj	8r	.	8r	.	.	.	.
.	.	8a-	me	8c- 8e-	me	.	.	.
.	.	8g-	_	8c- 8e-	_	.	.	.
.	.	[8g-	now,	[8B- [8d-	now,	E	.	.
.	.	8g-]	_	8B-] 8d-]	_	.	.	.
.	.	8b-	whoa	8B- 8e-	whoa	.	.	.
.	.	8a-	_	8c- 8e-	_	.	.	.
.	.	8g-	_	8c- 8e-	_	.	.	.
=32	=32	=32	=32	=32	=32	=32	=32	=32
1C-M	C-:maj	4a-	whoa,	4c- 4e-	whoa,	.	.	.
.	.	4g-	_	4c- 4e-	_	.	.	.
.	.	4a-	gone	4c- 4e-	gone	.	.	.
.	.	4g-	and	4c- 4e-	and	.	.	.
=33	=33	=33	=33	=33	=33	=33	=33	=33
.	.	8g-q	_	.	.	.	.	.
1C-M	C-:maj	4a-	got	4c- 4f-	got	.	.	.
.	.	8g-	me	8c- 8e-	me	.	.	.
.	.	[8a-	now	[8c- [8e-	now	E	.	.
.	.	8a-]	_	4c-] 4e-]	_	.	.	.
.	.	8g-	_	.	.	.	.	.
.	.	4e-	_	4r	.	.	.	.
=34	=34	=34	=34	=34	=34	=34	=34	=34
1G-M	G-:maj	8r	.	8r	.	.	.	newline
.	.	8a-	I	8d- 8g-	I	.	.	.
.	.	4b-	can't	4d- 4g-	can't	.	.	.
.	.	4b-	fight	4d- 4g-	fight	.	.	.
.	.	4a-	him	4c- 4e-	him	b	.	.
=35	=35	=35	=35	=35	=35	=35	=35	=35
1G-M	G-:maj	4b-	a-	4d- 4g-	a-	b	.	.
.	.	8a-	-ny-	8c- 8e-	-ny-	.	.	.
.	.	[8g-	-how,	[8B- [8d-	-how,	E	.	.
.	.	8g-]	_	8B-] 8d-]	_	.	.	.
.	.	8a-	I	8c- 8e-	I	.	.	.
.	.	4b-	_	4d- 4g-	_	.	.	.
=36	=36	=36	=36	=36	=36	=36	=36	=36
1A-M	A-:maj	4a-	think	4c 4e-	think	.	.	.
.	.	4a-	he's	4c 4e-	he's	.	.	.
.	.	4a-	gon-	4c 4e-	gon-	.	.	.
.	.	8g-	-.	8c 8e-	-.	.	.	.
.	.	8a-q	_	8cq 8e-q	_	.	.	.
.	.	[8b-	win	[8d- [8f	win	B	.	.
=37	=37	=37	=37	=37	=37	=37	=37	=37
1D-M	D-:maj	8b-]	_	8d-] 8f]	_	.	.	.
.	.	8r	.	8r	.	.	.	.
.	.	4r	.	4r	.	.	.	.
.	.	2r	.	2r	.	.	.	.
=38	=38	=38	=38	=38	=38	=38	=38	=38
.	.	8a-q	_	.	.	.	.	.
1G-M	G-:maj	4b-	Hea-	4d- 4g-	Hea-	.	.	newline
.	.	4a-	-ven's	4d- 4g-	-ven's	b	.	.
.	.	4b-	just	4d- 4g-	just	.	.	.
.	.	4a-	a	4c- 4e-	a	.	.	.
=39	=39	=39	=39	=39	=39	=39	=39	=39
.	.	8a-q	_	.	.	.	.	.
1G-M	G-:maj	4b-	sin	4d- 4g-	sin	B	.	.
.	.	8a-	a-	8c- 8e-	a-	.	.	.
.	.	[8g-	-way,	[8B- [8d-	-way,	A	.	.
.	.	8g-]	_	8B-] 8d-]	_	.	.	.
.	.	8b-	whoa	8B- 8e-	whoa	.	.	.
.	.	8a-	_	8c- 8e-	_	.	.	.
.	.	8g-	_	8c- 8e-	_	.	.	.
=40	=40	=40	=40	=40	=40	=40	=40	=40
1C-M	C-:maj	4a-	whoa,	4c- 4e-	whoa,	.	.	.
.	.	4g-	_	4c- 4e-	_	.	.	.
.	.	4a-	just	4c- 4e-	just	.	.	.
.	.	4g-	a	4c- 4e-	a	.	.	.
=41	=41	=41	=41	=41	=41	=41	=41	=41
.	.	8g-q	_	.	.	.	.	.
1C-M	C-:maj	4a-	sin	4c- 4f-	sin	B	.	.
.	.	8g-	a-	8c- 8e-	a-	.	.	.
.	.	[8a-	-way,	[8c- [8e-	-way	A	.	.
.	.	8a-]	_	4c-] 4e-]	_	.	.	.
.	.	8g-	_	.	.	.	.	.
.	.	4e-	_	4r	.	.	.	.
=42	=42	=42	=42	=42	=42	=42	=42	=42
1G-M	G-:maj	8b-	Hea-	8d- 8g-	Hea-	.	.	newline
.	.	4b-	-ven	4d- 4g-	-ven	b	.	.
.	.	[8b-	help	[8d- [8g-	help	.	.	.
.	.	8b-]	_	8d-] 8g-]	_	.	.	.
.	.	4.a-	me	4.c- 4.e-	me	.	.	.
=43	=43	=43	=43	=43	=43	=43	=43	=43
1G-M	G-:maj	8b-	when	8d- 8g-	when	b	.	.
.	.	4a-	I	4c- 4e-	I	.	.	.
.	.	8g-	say	8B- 8d-	say	A	.	.
.	.	4r	.	4r	.	.	.	.
.	.	8r	.	8r	.	.	.	.
.	.	8b-	I	8d- 8g-	I	.	.	.
=44	=44	=44	=44	=44	=44	=44	=44	=44
1D-M	D-:maj	4a-	think	4d- 4f	think	.	.	.
.	.	4g-	I'm	4d- 4e-	I'm	.	.	.
.	.	4b-	gi-	4d- 4g-	gi-	(B	.	.
.	.	8dd-	-vin'	8d- 8f	-vin'	b)	.	.
.	.	8a-q	_	8fq	_	.	.	.
.	.	[8b-	in!	[8d- [8g-	in!	B	.	.
=45	=45	=45	=45	=45	=45	=45	=45	=45
*>Letter>B2	*>Letter>B2	*>Letter>B2	*>Letter>B2	*>Letter>B2	*>Letter>B2	*>Letter>B2	*>Letter>B2	*>Letter>B2
*>Label>Solo	*>Label>Solo	*>Label>Solo	*>Label>Solo	*>Label>Solo	*>Label>Solo	*>Label>Solo	*>Label>Solo	*>Label>Solo
1G-M	G-:maj	8b-]	_	8d-] 8g-]	_	.	.	newline
.	.	8a-	_	8c- 8e-	_	.	.	.
.	.	2.g-	_	2.B- 2.d-	_	.	.	.
=46	=46	=46	=46	=46	=46	=46	=46	=46
1G-M	G-:maj	1r	.	1r	.	.	.	.
=47	=47	=47	=47	=47	=47	=47	=47	=47
1C-M	C-:maj	1r	.	1r	.	.	.	.
=48	=48	=48	=48	=48	=48	=48	=48	=48
1C-M	C-:maj	1r	.	1r	.	.	.	.
=49	=49	=49	=49	=49	=49	=49	=49	=49
1G-M	G-:maj	1r	.	1r	.	.	.	newline
=50	=50	=50	=50	=50	=50	=50	=50	=50
1G-M	G-:maj	1r	.	1r	.	.	.	.
=51	=51	=51	=51	=51	=51	=51	=51	=51
1D-M	D-:maj	1r	.	1r	.	.	.	.
=52	=52	=52	=52	=52	=52	=52	=52	=52
*>Letter>A	*>Letter>A	*>Letter>A	*>Letter>A	*>Letter>A	*>Letter>A	*>Letter>A	*>Letter>A	*>Letter>A
*>Label>Trans	*>Label>Trans	*>Label>Trans	*>Label>Trans	*>Label>Trans	*>Label>Trans	*>Label>Trans	*>Label>Trans	*>Label>Trans
1G-M	G-:maj	1r	.	1r	.	.	.	newline
=53	=53	=53	=53	=53	=53	=53	=53	=53
1G-M	G-:maj	4r	.	1r	.	.	.	.
.	.	8r	.	.	.	.	.	.
.	.	8a-q	_	.	.	.	.	.
.	.	[8b-	Oh,	.	.	.	.	.
.	.	8b-]	_	.	.	.	.	.
.	.	8a-	_	.	.	.	.	.
.	.	8b-	_	.	.	.	.	.
.	.	8a-	_	.	.	.	.	.
=54	=54	=54	=54	=54	=54	=54	=54	=54
*>Letter>C	*>Letter>C	*>Letter>C	*>Letter>C	*>Letter>C	*>Letter>C	*>Letter>C	*>Letter>C	*>Letter>C
*>Label>Bridge	*>Label>Bridge	*>Label>Bridge	*>Label>Bridge	*>Label>Bridge	*>Label>Bridge	*>Label>Bridge	*>Label>Bridge	*>Label>Bridge
1C-M	C-:maj	8a-	way	1r	.	.	.	newline
.	.	8g-	_	.	.	.	.	.
.	.	4g-	down	.	.	.	.	.
.	.	8e-	deep	.	.	.	.	.
.	.	8a-	in	.	.	.	.	.
.	.	4b-	_	.	.	.	.	.
=55	=55	=55	=55	=55	=55	=55	=55	=55
1C-M	C-:maj	4a-	side	1r	.	C	.	.
.	.	4g-	_	.	.	.	.	.
.	.	4r	.	.	.	.	.	.
.	.	8g-	I	.	.	.	.	.
.	.	8a-	know	.	.	.	.	.
=56	=56	=56	=56	=56	=56	=56	=56	=56
1G-M	G-:maj	4g-	_	1r	.	.	.	.
.	.	8g-	that	.	.	.	.	.
.	.	[8a-	it's	.	.	.	.	.
.	.	8a-]	_	.	.	.	.	.
.	.	8a-	all	.	.	.	.	.
.	.	8b-	_	.	.	.	.	.
.	.	8a-	_	.	.	.	.	.
=57	=57	=57	=57	=57	=57	=57	=57	=57
1G-M	G-:maj	16a-	wrong	1r	.	D	.	.
.	.	[8.g-	_	.	.	.	.	.
.	.	16g-]	_	.	.	.	.	.
.	.	16e-	_	.	.	.	.	.
.	.	8r	.	.	.	.	.	.
.	.	8r	.	.	.	.	.	.
.	.	8a-	Your	.	.	.	.	.
.	.	8b-	_	.	.	.	.	.
.	.	8a-	_	.	.	.	.	.
=58	=58	=58	=58	=58	=58	=58	=58	=58
1C-M	C-:maj	16a-	eyes	1r	.	C	.	newline
.	.	8.g-	_	.	.	.	.	.
.	.	4g-	keep	.	.	.	.	.
.	.	8e-	temp-	.	.	.	.	.
.	.	8a-	-ting	.	.	.	.	.
.	.	8b-	_	.	.	.	.	.
.	.	8a-	_	.	.	.	.	.
=59	=59	=59	=59	=59	=59	=59	=59	=59
1C-M	C-:maj	8a-	me	1r	.	.	.	.
.	.	4.g-	_	.	.	.	.	.
.	.	8r	.	.	.	.	.	.
.	.	8a-	and	.	.	.	.	.
.	.	4b-	I	.	.	.	.	.
=60	=60	=60	=60	=60	=60	=60	=60	=60
1D-M	D-:maj	8a-	ne-	8d- 8f	ne-	.	.	.
.	.	4a-	-ver	4d- 4f	-ver	.	.	.
.	.	[8a-	was	[8d- [8f	was	.	.	.
.	.	8a-]	_	8d-] 8f]	_	.	.	.
.	.	4b-	that	4e- 4g-	that	.	.	.
.	.	8cc-q	_	8e-q 8g-q	_	.	.	.
.	.	[8dd-	strong,	[8f [8a-	strong,	D	.	.
=61	=61	=61	=61	=61	=61	=61	=61	=61
1D-M	D-:maj	4dd-]	_	4f] 4a-]	_	.	.	.
.	.	4b-	_	4e- [4g-	_	.	.	.
.	.	4a-	_	[2d- 2g-_	_	.	.	.
.	.	[4b-	_	.	.	.	.	.
=62	=62	=62	=62	=62	=62	=62	=62	=62
*>Letter>B	*>Letter>B	*>Letter>B	*>Letter>B	*>Letter>B	*>Letter>B	*>Letter>B	*>Letter>B	*>Letter>B
*>Label>Chorus	*>Label>Chorus	*>Label>Chorus	*>Label>Chorus	*>Label>Chorus	*>Label>Chorus	*>Label>Chorus	*>Label>Chorus	*>Label>Chorus
1G-M	G-:maj	2b-]	_	2d-] 2g-]	_	.	.	newline
.	.	8b-	De-	8d- 8g-	De-	.	.	.
.	.	4a-	-vil's	4c- 4e-	-vil's	b	.	.
.	.	8a-q	_	8c-q 8e-q	_	.	.	.
.	.	8b-	got	8d- 8g-	got	.	.	.
=63	=63	=63	=63	=63	=63	=63	=63	=63
1G-M	G-:maj	8r	.	8r	.	.	.	.
.	.	8a-	me	8c- 8e-	me	.	.	.
.	.	8g-	_	8c- 8e-	_	.	.	.
.	.	[8g-	now,	[8B- [8d-	now,	E	.	.
.	.	8g-]	_	8B-] 8d-]	_	.	.	.
.	.	8b-	whoa	8B- 8e-	whoa	.	.	.
.	.	8a-	_	8c- 8e-	_	.	.	.
.	.	8g-	_	8c- 8e-	_	.	.	.
=64	=64	=64	=64	=64	=64	=64	=64	=64
1C-M	C-:maj	4a-	whoa,	4c- 4e-	whoa,	.	.	.
.	.	4g-	_	4c- 4e-	_	.	.	.
.	.	4a-	gone	4c- 4e-	gone	.	.	.
.	.	4g-	and	4c- 4e-	and	.	.	.
=65	=65	=65	=65	=65	=65	=65	=65	=65
.	.	8g-q	_	.	.	.	.	.
1C-M	C-:maj	4a-	got	4c- 4f-	got	.	.	.
.	.	8g-	me	8c- 8e-	me	.	.	.
.	.	[8a-	now	[8c- [8e-	now	E	.	.
.	.	8a-]	_	4c-] 4e-]	_	.	.	.
.	.	8g-	_	.	.	.	.	.
.	.	4e-	_	4r	.	.	.	.
=66	=66	=66	=66	=66	=66	=66	=66	=66
1G-M	G-:maj	8r	.	8r	.	.	.	newline
.	.	8a-	I	8d- 8g-	I	.	.	.
.	.	4b-	can't	4d- 4g-	can't	.	.	.
.	.	4b-	fight	4d- 4g-	fight	.	.	.
.	.	4a-	him	4c- 4e-	him	b	.	.
=67	=67	=67	=67	=67	=67	=67	=67	=67
1G-M	G-:maj	4b-	a-	4d- 4g-	a-	(B	.	.
.	.	8a-	-ny-	8c- 8e-	-ny-	.	.	.
.	.	[8g-	-how,	[8B- [8d-	-how,	E)	.	.
.	.	8g-]	_	8B-] 8d-]	_	.	.	.
.	.	8a-	I	8c- 8e-	I	.	.	.
.	.	4b-	_	4d- 4g-	_	.	.	.
=68	=68	=68	=68	=68	=68	=68	=68	=68
1A-M	A-:maj	4a-	think	4c 4e-	think	.	.	.
.	.	4a-	he's	4c 4e-	he's	.	.	.
.	.	4a-	gon-	4c 4e-	gon-	.	.	.
.	.	8g-	-.	8c 8e-	-.	.	.	.
.	.	8a-q	_	8cq 8e-q	_	.	.	.
.	.	[8b-	win	[8d- [8f	win	B	.	.
=69	=69	=69	=69	=69	=69	=69	=69	=69
1D-M	D-:maj	8b-]	_	8d-] 8f]	_	.	.	.
.	.	8r	.	8r	.	.	.	.
.	.	4r	.	4r	.	.	.	.
.	.	2r	.	2r	.	.	.	.
=70	=70	=70	=70	=70	=70	=70	=70	=70
.	.	8a-q	_	.	.	.	.	.
1G-M	G-:maj	4b-	Hea-	4d- 4g-	Hea-	.	.	newline
.	.	4a-	-ven's	4d- 4g-	-ven's	.	.	.
.	.	4b-	just	4d- 4g-	just	.	.	.
.	.	4a-	a	4c- 4e-	a	.	.	.
=71	=71	=71	=71	=71	=71	=71	=71	=71
.	.	8a-q	_	.	.	.	.	.
1G-M	G-:maj	4b-	sin	4d- 4g-	sin	B	.	.
.	.	8a-	a-	8c- 8e-	a-	.	.	.
.	.	[8g-	-way,	[8B- [8d-	-way,	A	.	.
.	.	8g-]	_	8B-] 8d-]	_	.	.	.
.	.	8b-	whoa	8B- 8e-	whoa	.	.	.
.	.	8a-	_	8c- 8e-	_	.	.	.
.	.	8g-	_	8c- 8e-	_	.	.	.
=72	=72	=72	=72	=72	=72	=72	=72	=72
1C-M	C-:maj	4a-	whoa,	4c- 4e-	whoa,	.	.	.
.	.	4g-	_	4c- 4e-	_	.	.	.
.	.	4a-	just	4c- 4e-	just	.	.	.
.	.	4g-	a	4c- 4e-	a	.	.	.
=73	=73	=73	=73	=73	=73	=73	=73	=73
.	.	8g-q	_	.	.	.	.	.
1C-M	C-:maj	4a-	sin	4c- 4f-	sin	B	.	.
.	.	8g-	a-	8c- 8e-	a-	.	.	.
.	.	[8a-	-way,	[8c- [8e-	-way	A	.	.
.	.	8a-]	_	4c-] 4e-]	_	.	.	.
.	.	8g-	_	.	.	.	.	.
.	.	4e-	_	4r	.	.	.	.
=74	=74	=74	=74	=74	=74	=74	=74	=74
1G-M	G-:maj	8b-	Hea-	8d- 8g-	Hea-	.	.	newline
.	.	4b-	-ven	4d- 4g-	-ven	b	.	.
.	.	[8b-	help	[8d- [8g-	help	.	.	.
.	.	8b-]	_	8d-] 8g-]	_	.	.	.
.	.	4.a-	me	4.c- 4.e-	me	.	.	.
=75	=75	=75	=75	=75	=75	=75	=75	=75
1G-M	G-:maj	8b-	when	8d- 8g-	when	B	.	.
.	.	4a-	I	4c- 4e-	I	.	.	.
.	.	8g-	say	8B- 8d-	say	A	.	.
.	.	4r	.	4r	.	.	.	.
.	.	8r	.	8r	.	.	.	.
.	.	8b-	I	8d- 8g-	I	.	.	.
=76	=76	=76	=76	=76	=76	=76	=76	=76
1D-M	D-:maj	4a-	think	4d- 4f	think	.	.	.
.	.	4g-	I'm	4d- 4e-	I'm	.	.	.
.	.	4b-	gi-	4d- 4g-	gi-	(B	.	.
.	.	8dd-	-vin'	8d- 8f	-vin'	b)	.	.
.	.	8a-q	_	8fq	_	.	.	.
.	.	[8b-	in!	[8d- [8g-	in!	B	.	.
=77	=77	=77	=77	=77	=77	=77	=77	=77
*>Letter>A	*>Letter>A	*>Letter>A	*>Letter>A	*>Letter>A	*>Letter>A	*>Letter>A	*>Letter>A	*>Letter>A
*>Label>Trans	*>Label>Trans	*>Label>Trans	*>Label>Trans	*>Label>Trans	*>Label>Trans	*>Label>Trans	*>Label>Trans	*>Label>Trans
1G-M	G-:maj	8b-]	_	8d-] 8g-]	_	.	.	newline
.	.	8a-	_	8c- 8e-	_	.	.	.
.	.	2.g-	_	2.B- 2.d-	_	.	.	.
=78	=78	=78	=78	=78	=78	=78	=78	=78
*G:	*G:	*G:	*	*G:	*	*	*G:	*G:
1DM	D:maj	1r	.	1r	.	.	.	.
=79	=79	=79	=79	=79	=79	=79	=79	=79
*>Letter>B	*>Letter>B	*>Letter>B	*>Letter>B	*>Letter>B	*>Letter>B	*>Letter>B	*>Letter>B	*>Letter>B
*>Label>Chorus	*>Label>Chorus	*>Label>Chorus	*>Label>Chorus	*>Label>Chorus	*>Label>Chorus	*>Label>Chorus	*>Label>Chorus	*>Label>Chorus
.	.	8aq	_	.	.	.	.	.
1GM	G:maj	4b	Hea-	4d 4g	Hea-	.	.	newline
.	.	4a	-ven's	4d 4g	-ven's	.	.	.
.	.	4b	just	4d 4g	just	.	.	.
.	.	4a	a	4c 4e	a	.	.	.
=80	=80	=80	=80	=80	=80	=80	=80	=80
.	.	8aq	_	.	.	.	.	.
1GM	G:maj	4b	sin	4d 4g	sin	B	.	.
.	.	8a	a-	8c 8e	a-	.	.	.
.	.	[8g	-way,	[8B [8d	-way,	A	.	.
.	.	8g]	_	8B] 8d]	_	.	.	.
.	.	8b	whoa	8B 8e	whoa	.	.	.
.	.	8a	_	8c 8e	_	.	.	.
.	.	8g	_	8c 8e	_	.	.	.
=81	=81	=81	=81	=81	=81	=81	=81	=81
1CM	C:maj	4a	whoa,	4c 4e	whoa,	.	.	.
.	.	4g	_	4c 4e	_	.	.	.
.	.	4a	just	4c 4e	just	.	.	.
.	.	4g	a	4c 4e	a	.	.	.
=82	=82	=82	=82	=82	=82	=82	=82	=82
.	.	8gq	_	.	.	.	.	.
1CM	C:maj	4a	sin	4c 4f	sin	B	.	.
.	.	8g	a-	8c 8e	a-	.	.	.
.	.	[8a	-way,	[8c [8e	-way	A	.	.
.	.	8a]	_	4c] 4e]	_	.	.	.
.	.	8g	_	.	.	.	.	.
.	.	4e	_	4r	.	.	.	.
=83	=83	=83	=83	=83	=83	=83	=83	=83
*>Label>>Fadeout	*>Label>>Fadeout	*>Label>>Fadeout	*>Label>>Fadeout	*>Label>>Fadeout	*>Label>>Fadeout	*>Label>>Fadeout	*>Label>>Fadeout	*>Label>>Fadeout
1GM	G:maj	8r	.	8r	.	.	.	newline
.	.	8a	I	8d 8g	I	.	.	.
.	.	4b	can't	4d 4g	can't	.	.	.
.	.	4b	wait	4d 4g	wait	A	.	.
.	.	4a	a-	4c 4e	a-	.	.	.
=84	=84	=84	=84	=84	=84	=84	=84	=84
1GM	G:maj	4b	-no-	4d 4g	-no-	.	.	.
.	.	8a	-ther	8c 8e	-ther	.	.	.
.	.	[8g	day,	[8B [8d	day,	A	.	.
.	.	8g]	_	8B] 8d]	_	.	.	.
.	.	8a	I	8c 8e	I	.	.	.
.	.	4b	_	4d 4g	_	.	.	.
=85	=85	=85	=85	=85	=85	=85	=85	=85
1AM	A:maj	4a	think	4c# 4e	think	.	.	.
.	.	4a	I'm	4c# 4e	I'm	.	.	.
.	.	4a	gi-	4c# 4e	gi-	(B	.	.
.	.	8g	-vin'	8c# 8e	-vin'	b)	.	.
.	.	8aq	_	8c#q 8eq	_	.	.	.
.	.	[8b	in	[8d [8f#	in	B	.	.
=86	=86	=86	=86	=86	=86	=86	=86	=86
1DM	D:maj	8b]	_	8d] 8f#]	_	.	.	.
.	.	8r	.	8r	.	.	.	.
.	.	4r	.	4r	.	.	.	.
.	.	2r	.	2r	.	.	.	.
=87	=87	=87	=87	=87	=87	=87	=87	=87
.	.	8aq	_	.	.	.	.	.
1GM	G:maj	8b	How	8d 8g	How	.	.	newline
.	.	4a	I'd	4d 4g	I'd	.	.	.
.	.	4.b	love	4.d 4.g	love	.	.	.
.	.	8a	to	8c 8e	to	.	.	.
.	.	[8b	hold	[8d [8g	hold	.	.	.
=88	=88	=88	=88	=88	=88	=88	=88	=88
1GM	G:maj	4b]	_	4d] 4g]	_	.	.	.
.	.	8a	you	8c 8e	you	.	.	.
.	.	[8g	tight,	[8B [8d	tight,	C	.	.
.	.	8g]	_	8B] 8d]	_	.	.	.
.	.	8b	whoa	8B 8e	whoa	.	.	.
.	.	8a	_	8c 8e	_	.	.	.
.	.	8g	_	8c 8e	_	.	.	.
=89	=89	=89	=89	=89	=89	=89	=89	=89
1CM	C:maj	4a	whoa,	4c 4e	whoa,	.	.	.
.	.	4g	_	4c 4e	_	.	.	.
.	.	4a	be	4c 4e	be	.	.	.
.	.	8g	with	8c 8e	with	.	.	.
.	.	[8a	you	[8c [8f	you	.	.	.
=90	=90	=90	=90	=90	=90	=90	=90	=90
1CM	C:maj	4a]	_	4c] 4f]	_	.	.	.
.	.	8g	to-	8c 8e	to-	.	.	.
.	.	[8a	-night	[8c [8e	-night	C	.	.
.	.	8a]	_	4c] 4e]	_	.	.	.
.	.	8g	_	.	.	.	.	.
.	.	4e	_	4r	.	.	.	.
1r;	1r	r;	.	r;	.	.	.	.
1r;	1r	r;	.	r;	.	.	.	.
*-	*-	*-	*-	*-	*-	*-	*-	*-
!!!BillboardChartDate: 1977/11/19
!!!BillboardPeak: 69
!!!BillboardWeeksOnChart: 7
!!!COC: The Kendalls
!!!ENC: .thaniel Condit-Schultz
!!!EST: Awating manual error checking and editing.
!!!OTL: Heaven's Just A Sin Away
!!!RDF**chordsym: origi.l McGill chord annotation + (implied pitch class set, with bass pitch in first position)
!!!RDF**harmony: **recip + pitch class of root + harmonic quality
!!!RDF**leadinstrument: origi.l McGill primary instrumentation annotation
!!!RDF**phrase: newline = linebreak in origi.l McGill transcription
!!!RDF**timestamp: McGill audio timestamp in seconds
!!!RDT: 2017/01/12/
!!!SampleActualRank: 80
!!!SampleID#: 0671
!!!SampleTargetRank: 78
!!!MBID: baa9d504-319c-4367-88d0-8e89ad30c3f6
